X:596
T:BATTERING RAM (THE)
R:jig
D:Chieftains 1
D:Kevin Crawford: D flute album
Z:id:hn-jig-108
M:6/8
K:G
B|dBG BAG|dBG G2B|dBG AGE|GED D2B|
dBG BAG|(3B/c/d/ B BAG|AGA BAB|GED D2:|]
B|deg aga|bge edB|deg aga|bge e2b|
bag age|ged (3e/f/g/ e|dBG AGE|GED D2:|]
e>d|B2G A2G|B2D D2B|BAG AGE|GED D2 e>d|
B2G A2G|(3B/c/d/ B BAG|AGA BAB|GED D2:|]

